X:575
T:
S:»Polkan är en farlig dans - - - Där man lätt förlorar sans». Uppt. efter K. Odin, Kaupe i Fröjeln.
R:polka
O:Gotland, Fröjel
M:2/4
L:1/16
K:C
G2c2 c2Bc|d2G2 G^FG2|e2c2 e2c2|a2g2 g^fg2|G2c2 cBc2|d2A2 A^GA2|f2B2
AcBd|c2c2 c2:|
K:G
|d2g2 gfg2|f2e2 e^de2|A2e2 dcBA|B2D2 GABc|d2g2 agfg|f2e2 e^de2|c2e2
dcBA|G2G2 G2 z2:|

